FINK
CUT[WILLKOMMEN LIEBER MONDENSCHEIN]
REG[Europa, Mitteleuropa, Deutschland]
KEY[F0085  08  G 6/8]
MEL[1  5_5523  2111_
    1  +1_+1+176  5__0
    3  4_62_4  3_51_
    3  234-5-6-7  1__0 //] >>
FCT[Moral - Lied]
